icon-themes/breeze_svg/cmd/32/superscript.svg

<svg viewBox="0 0 32 32" xmlns="http://www.w3.org/2000/svg"><path d="m13 4-8.9296875 23.824219-.0703125.175781h2l3.3925781-9h4.6074219 4.607422l3.392578 9h2l-.070312-.175781-8.929688-23.824219h-1zm1 2.4023438 3.849609 10.5976562h-3.849609-3.849609z" fill="#4d4d4d"/><path d="m20 2v10h1 4a3 3 0 0 0 3-3 3 3 0 0 0 -1.746094-2.7226562 2.5 2.5 0 0 0 .746094-1.7773438 2.5 2.5 0 0 0 -2.400391-2.4960938v-.0039062h-3.599609zm1 1h3.5a1.5 1.5 0 0 1 1.5 1.5 1.5 1.5 0 0 1 -1.5 1.5h-3.5zm0 4h4a2 2 0 0 1 2 2 2 2 0 0 1 -2 2h-4z" fill="#1d99f3"/></svg>

<svg xmlns="http://www.w3.org/2000/svg" viewBox="0 0 32 32">
 <path 
     style="fill:#4d4d4d" 
     d="M 13 4 L 4.0703125 27.824219 L 4 28 L 6 28 L 9.3925781 19 L 14 19 L 18.607422 19 L 22 28 L 24 28 L 23.929688 27.824219 L 15 4 L 14 4 L 13 4 z M 14 6.4023438 L 17.849609 17 L 14 17 L 10.150391 17 L 14 6.4023438 z "
     />
 <path 
     style="fill:#1d99f3" 
     d="M 20 2 L 20 12 L 21 12 L 25 12 A 3 3 0 0 0 28 9 A 3 3 0 0 0 26.253906 6.2773438 A 2.5 2.5 0 0 0 27 4.5 A 2.5 2.5 0 0 0 24.599609 2.0039062 L 24.599609 2 L 21 2 L 20 2 z M 21 3 L 24.5 3 A 1.5 1.5 0 0 1 26 4.5 A 1.5 1.5 0 0 1 24.5 6 L 21 6 L 21 3 z M 21 7 L 25 7 A 2 2 0 0 1 27 9 A 2 2 0 0 1 25 11 L 21 11 L 21 7 z "
     />
</svg>
